X:17046
T:The Nervous Man
R:Reel
S:Liz Carroll & Billy McComiskey
C: Paddy O'Brien
H:
N:
D:Live Recording broadcast on Clare FM
Z:Adrian Scahill
M:2/2
L:1/8
K:G
A|BdcA BGG2|DGBd gfde|=f2 c_B A=FF2|A=FAc =fag^f|\
d2cA BGG2|DGBd gdBd|c2Ac =fAga|^fdcA G4:||\
dgg2 fgaf|gfdc ABcA|dgg2 fdfa|gbaf g3a|\
gfdc AGG2|AdcA GFDE|=F2Ac =fAga|^fdcA G4:||
